Origami/48x48/apps/minetest.svg

<svg width="48" height="48" version="1.1" viewBox="0 0 48 48" xmlns="http://www.w3.org/2000/svg">
 <path d="m23.904882 21.001537c-0.663131 0.01477-1.279486 0.111558-2.005883 0.512499l-16.322213 9.009371c-0.7269763 0.401271-1.4873832 1.159023-1.5710767 2.296874-0.083693 1.137851 0.7677799 2.212845 1.5625844 2.651561l16.339198 9.018744c0.79488 0.438754 1.524109 0.52279 2.187618 0.507812 0.663509-0.01498 1.279369-0.111474 2.005883-0.512499l16.322213-9.00937c0.726444-0.400981 1.487306-1.158577 1.571077-2.296875 0.08377-1.138296-0.768224-2.213089-1.562585-2.65156l-16.339198-9.018745c-0.794523-0.438556-1.523233-0.522435-2.18592-0.507812z" style="opacity:.2"/>
 <path d="m23.904882 20.001537c-0.663131 0.01477-1.279486 0.111558-2.005883 0.512499l-16.322213 9.009371c-0.7269763 0.401271-1.4873832 1.159023-1.5710767 2.296874-0.083693 1.137851 0.7677799 2.212845 1.5625844 2.651561l16.339198 9.018744c0.79488 0.438754 1.524109 0.52279 2.187618 0.507812 0.663509-0.01498 1.279369-0.111474 2.005883-0.512499l16.322213-9.00937c0.726444-0.400981 1.487306-1.158577 1.571077-2.296875 0.08377-1.138296-0.768224-2.213089-1.562585-2.65156l-16.339198-9.018745c-0.794523-0.438556-1.523233-0.522435-2.18592-0.507812z" style="fill:#197236"/>
 <path d="m15 24h6v8l-3 2-3-2z" style="opacity:.2"/>
 <path d="m23.904297 20.001953c-0.663131 0.01477-1.279462 0.110778-2.005859 0.511719l-16.322266 9.009766c-0.7269763 0.401271-1.486619 1.159024-1.5703125 2.296874-0.0159459 0.216793 0.0115513 0.428456 0.0566406 0.636719 0.2004233-0.936291 0.8676013-1.57698 1.5136719-1.933593l16.322266-9.009766c0.726397-0.400941 1.342728-0.496949 2.005859-0.511719h0.001953c0.662687-0.014623 1.391024 0.069257 2.185547 0.507813l16.339844 9.017578c0.643012 0.35493 1.314218 1.130626 1.505859 2.015625 0.025115-0.117285 0.047318-0.2366 0.056641-0.363281 0.08377-1.138297-0.768139-2.213873-1.5625-2.652344l-16.339844-9.017578c-0.794523-0.438556-1.52286-0.522436-2.185547-0.507813h-0.001953z" style="fill:#ffffff;opacity:.1"/>
 <path d="m15 23h6v8l-3 2-3-2z" style="fill:#a0722e"/>
 <path d="m18.060168 6.0007319a2.5364868 2.5013242 0 0 0 -1.328355 0.3336831l-7.463459 4.249265a2.5364868 2.5013242 0 0 0 -1.268354 2.16643v8.49908a2.5364868 2.5013242 0 0 0 1.268244 2.166213l7.463457 4.249483a2.5364868 2.5013242 0 0 0 2.536487 0l7.463458-4.249483a2.5364868 2.5013242 0 0 0 1.268354 -2.166434v-8.499079a2.5364868 2.5013242 0 0 0 -1.268354 -2.166431l-7.463458-4.2492645a2.5364868 2.5013242 0 0 0 -1.208354 -0.333681z" style="opacity:.2"/>
 <path d="m18.060168 5.0007319a2.5364868 2.5013242 0 0 0 -1.328355 0.3336831l-7.463459 4.249265a2.5364868 2.5013242 0 0 0 -1.268354 2.16643v8.49908a2.5364868 2.5013242 0 0 0 1.268244 2.166213l7.463457 4.249483a2.5364868 2.5013242 0 0 0 2.536487 0l7.463458-4.249483a2.5364868 2.5013242 0 0 0 1.268354 -2.166434v-8.499079a2.5364868 2.5013242 0 0 0 -1.268354 -2.166431l-7.463458-4.2492645a2.5364868 2.5013242 0 0 0 -1.208354 -0.333681z" style="fill:#74ba2f"/>
 <path d="M 18.060547,5 A 2.5364868,2.5013242 0 0 0 16.732422,5.3339844 L 9.267578,9.583984 A 2.5364868,2.5013242 0 0 0 8,11.75 v 1 A 2.5364868,2.5013242 0 0 1 9.267578,10.583984 L 16.732422,6.3339844 A 2.5364868,2.5013242 0 0 1 18.060547,6 2.5364868,2.5013242 0 0 1 19.267578,6.3339844 l 7.464844,4.2499996 A 2.5364868,2.5013242 0 0 1 28,12.75 v -1 A 2.5364868,2.5013242 0 0 0 26.732422,9.583984 L 19.267578,5.3339844 A 2.5364868,2.5013242 0 0 0 18.060547,5 Z" style="fill:#ffffff;opacity:.2"/>
</svg>

<svg xmlns="http://www.w3.org/2000/svg" width="48" height="48" version="1.1" viewBox="0 0 48 48">
 <path style="opacity:0.2" d="m 23.904882,21.001537 c -0.663131,0.01477 -1.279486,0.111558 -2.005883,0.512499 L 5.5767864,30.523407 c -0.7269763,0.401271 -1.4873832,1.159023 -1.5710767,2.296874 -0.083693,1.137851 0.7677799,2.212845 1.5625844,2.651561 l 16.3391979,9.018744 c 0.79488,0.438754 1.524109,0.52279 2.187618,0.507812 0.663509,-0.01498 1.279369,-0.111474 2.005883,-0.512499 l 16.322213,-9.00937 c 0.726444,-0.400981 1.487306,-1.158577 1.571077,-2.296875 0.08377,-1.138296 -0.768224,-2.213089 -1.562585,-2.65156 L 26.0925,21.509349 c -0.794523,-0.438556 -1.523233,-0.522435 -2.18592,-0.507812 z"/>
 <path style="fill:#197236" d="m 23.904882,20.001537 c -0.663131,0.01477 -1.279486,0.111558 -2.005883,0.512499 L 5.5767864,29.523407 c -0.7269763,0.401271 -1.4873832,1.159023 -1.5710767,2.296874 -0.083693,1.137851 0.7677799,2.212845 1.5625844,2.651561 l 16.3391979,9.018744 c 0.79488,0.438754 1.524109,0.52279 2.187618,0.507812 0.663509,-0.01498 1.279369,-0.111474 2.005883,-0.512499 l 16.322213,-9.00937 c 0.726444,-0.400981 1.487306,-1.158577 1.571077,-2.296875 0.08377,-1.138296 -0.768224,-2.213089 -1.562585,-2.65156 L 26.0925,20.509349 c -0.794523,-0.438556 -1.523233,-0.522435 -2.18592,-0.507812 z"/>
 <path style="opacity:0.2" d="m 15,24 h 6 v 8 l -3,2 -3,-2 z"/>
 <path style="opacity:0.1;fill:#ffffff" d="M 23.904297 20.001953 C 23.241166 20.016723 22.624835 20.112731 21.898438 20.513672 L 5.5761719 29.523438 C 4.8491956 29.924709 4.0895529 30.682462 4.0058594 31.820312 C 3.9899135 32.037105 4.0174107 32.248768 4.0625 32.457031 C 4.2629233 31.52074 4.9301013 30.880051 5.5761719 30.523438 L 21.898438 21.513672 C 22.624835 21.112731 23.241166 21.016723 23.904297 21.001953 L 23.90625 21.001953 C 24.568937 20.98733 25.297274 21.07121 26.091797 21.509766 L 42.431641 30.527344 C 43.074653 30.882274 43.745859 31.65797 43.9375 32.542969 C 43.962615 32.425684 43.984818 32.306369 43.994141 32.179688 C 44.077911 31.041391 43.226002 29.965815 42.431641 29.527344 L 26.091797 20.509766 C 25.297274 20.07121 24.568937 19.98733 23.90625 20.001953 L 23.904297 20.001953 z"/>
 <path style="fill:#a0722e" d="m 15,23 h 6 v 8 l -3,2 -3,-2 z"/>
 <path style="opacity:0.2" d="M 18.060168,6.0007319 A 2.5364868,2.5013242 0 0 0 16.731813,6.334415 L 9.268354,10.58368 A 2.5364868,2.5013242 0 0 0 8,12.75011 v 8.49908 a 2.5364868,2.5013242 0 0 0 1.268244,2.166213 l 7.463457,4.249483 a 2.5364868,2.5013242 0 0 0 2.536487,0 l 7.463458,-4.249483 A 2.5364868,2.5013242 0 0 0 28,21.248969 V 12.74989 A 2.5364868,2.5013242 0 0 0 26.731646,10.583459 L 19.268188,6.3341945 a 2.5364868,2.5013242 0 0 0 -1.208354,-0.333681 z"/>
 <path style="fill:#74ba2f" d="M 18.060168,5.0007319 A 2.5364868,2.5013242 0 0 0 16.731813,5.334415 L 9.268354,9.58368 A 2.5364868,2.5013242 0 0 0 8,11.75011 v 8.49908 a 2.5364868,2.5013242 0 0 0 1.268244,2.166213 l 7.463457,4.249483 a 2.5364868,2.5013242 0 0 0 2.536487,0 l 7.463458,-4.249483 A 2.5364868,2.5013242 0 0 0 28,20.248969 V 11.74989 A 2.5364868,2.5013242 0 0 0 26.731646,9.583459 L 19.268188,5.3341945 a 2.5364868,2.5013242 0 0 0 -1.208354,-0.333681 z"/>
 <path style="opacity:0.2;fill:#ffffff" d="M 18.060547,5 A 2.5364868,2.5013242 0 0 0 16.732422,5.3339844 L 9.267578,9.583984 A 2.5364868,2.5013242 0 0 0 8,11.75 v 1 A 2.5364868,2.5013242 0 0 1 9.267578,10.583984 L 16.732422,6.3339844 A 2.5364868,2.5013242 0 0 1 18.060547,6 2.5364868,2.5013242 0 0 1 19.267578,6.3339844 l 7.464844,4.2499996 A 2.5364868,2.5013242 0 0 1 28,12.75 v -1 A 2.5364868,2.5013242 0 0 0 26.732422,9.583984 L 19.267578,5.3339844 A 2.5364868,2.5013242 0 0 0 18.060547,5 Z"/>
</svg>
